X:1
T:Title
L:1/8
M:4/4
K:D
V:1 treble nm="Grand Piano"
V:1
 z4 z[Q:1/4=100] Adc | B4- BFAG | G2 G2- GGcB | A2 A>A AEGF | F>=F ^F2- FFBc | d2 d>d d2 c>B | %6
 B4- BBBA | A>A A2- AE/E/ GF | D4- DAdc | B2 B2- BFAG | G2 G2- GGcB | A2 A4 G>F | F4- FF/F/ Bc | %13
 d2 dd dddc | c>B B2- BBBA | A>A A2- AEGF | D3 A AA- A/A/G/F/ | G F2 F BB- B/c/B/A/ | %18
 A G2 G cc- c/c/B/A/ | c c3- cAdc | B2 B>B BFAG | G4- GGcB | A2 A>A AEGF | F4- FFBc | d4- dddc | %25
 c2 B2- BBBA | A2 A>A AEGF | D6 z2 |] %28

